X:1
T:Unconditional Generated Sample
M:4/4
L:1/8
Q:1/4=120
K:C

^A,,,A,,, =A,,,^G,,, =G,,,G,,, ^F,,,=F,,,| \
E,,,E,,, E,,,E,,, E,,,E,,, E,,,E,,,-|
E,,,E,,, E,,,E,,, E,,,E,,, E,,,E,,,| \
A,,,A,,, ^G,,,=G,,, ^F,,,=F,,, E,,,E,,,| \
A,,,A,,, ^G,,,=G,,, ^F,,,=F,,, E,,,E,,,| \
^C,,C,, =C,,B,,, ^A,,,A,,, =A,,,^G,,,|
G,,,G,,, ^F,,,=F,,, E,,,E,,, E,,,E,,,| \
A,,,A,,, ^G,,,=G,,, ^F,,,=F,,, E,,,E,,,| \
D,,D,, D,,D,, A,,,A,,, D,,D,,| \
E,,E,, E,,E,, E,,E,, E,,E,,|
A,,,A,,, A,,,A,,, A,,,A,,, A,,,A,,,| \
A,,,A,,, A,,,A,,, A,,,A,,, A,,,A,,,| \
B,,,3-B,,,/2z/2 A,,,3-A,,,/2z/2| \
^G,,,3-G,,,/2z/2 A,,,3-A,,,/2z/2|
B,,,8-| \
B,,,3-B,,,/2z/2 E,,3-E,,/2z/2| \
^C,,8-| \
^C,,3-C,,/2z/2 A,,,3-A,,,/2z/2|
D,,6- D,,3/2z/2| \
E,,,6- E,,,3/2z/2| \
A,,,8-| \
A,,,3-A,,,/2z/2 E,,,3-E,,,/2z/2|
A,,,8-| \
A,,,3-A,,,/2z/2 E,,3-E,,/2z/2| \
A,,,8-| \
A,,,3-A,,,/2z/2 E,,,3-E,,,/2z/2|
A,,,8-| \
A,,,3-A,,,/2z/2 E,,,3-E,,,/2z/2| \
A,,,8-| \
A,,,3-A,,,/2z/2 E,,,3-E,,,/2z/2|
A,,,8-| \
A,,,3-A,,,/2z/2 E,,,3-E,,,/2z/2| \
A,,,8-| \
A,,,3-A,,,/2z/2 E,,,3-E,,,/2z/2|
A,,,8-| \
A,,,3-A,,,/2z/2 E,,,3-E,,,/2z/2| \
A,,,8-| \
A,,,3-A,,,/2z/2 E,,,3-E,,,/2z/2|
B,,,6- B,,,3/2z/2| \
G,,,6- G,,,3/2z/2| \
^F,,,8-| \
^F,,,3-F,,,/2z/2 B,,,3-B,,,/2z/2|
E,,,8-| \
E,,,3-E,,,/2z/2 B,,,3-B,,,/2z/2| \
E,,,8-| \
E,,,3-E,,,/2z/2 B,,,3-B,,,/2z/2|
A,,,8-| \
A,,,3-A,,,/2z/2 E,,,3-E,,,/2z/2| \
A,,,8-| \
A,,,3-A,,,/2z/2 E,,,3-E,,,/2z/2|
A,,,8-| \
A,,,3-A,,,/2z/2 E,,,3-E,,,/2z/2| \
A,,,8-| \
A,,,3-A,,,/2z/2 E,,,3-E,,,/2z/2|
B,,,6- B,,,3/2z/2| \
G,,,6- G,,,3/2z/2| \
^F,,,8-| \
^F,,,3-F,,,/2z/2 B,,,3-B,,,/2z/2|
E,,,
---------------